!! Stephen C. Foster, "That's What's the Matter"
!! from 'Stephen Foster Song Book' Dover Publications (New York) pp. 123-125
!! NOTE:  Leading and trailing bars of rest have been omitted.
**kern
*M2/4
*MM64
*D:
8a
=1
8d
8d
8e
8e
=2
8f#
8a
8.dd
16b
=3
8a
8e
8e
8a
=4
8f#
8e
8d
16r
16a
=5
8d
8d
8e
8e
=6
8f#
8a
8.dd;
16b
=7
4a
8.e
16a
=8
8f#
8d
8r
8a
=9
8a
8ee
8dd
8cc#
=10
8dd
8a
8a
16r
16a
=11
8dd
8a
8g
8f#
=12
8f#
8e
8e
8a
=13
8d
8d
8e
8e
=14
8f#
8a
8dd;
16r
16b
=15
4a
8.e
16a
=16
8f#
8d
4r
!! Chorus:
=17
4dd
8.a
16a
=18
8b
8a
8r
8a
=19
8dd
8a
8g
8f#
=20
8f#
8e
8r
8d
=21
8d
8d
8e
8e
=22
8f#
8a
8.dd;
16b
=23
4a
8.e
16a
=24
8f#
8d
8r
==
*-
